X:45
T:Take me Right THO3.045
T:Feathers,aka THO3.45, The
O:England;London
M:6/8
L:1/8
Z:vmp. Peter Dunk 2011.from a transcription by Fynn Titford-Mock 2006-9
B:Thompson's Compleat Collection of 200 Favourite Country Dances Vol. III.1765-72
Q:3/8=105
K:G
G2 g G2 g|gfe d2 g|edc B>AG|FAG FED|G2 g G2 g|gfe d2 g|egf ed^c|d3D3:|
|:d2 D d2 D|dcB c3|c2 [cC]c2 [cC]|cBA B3|G2 A B2 c|def gfe|dcB AGF|G3 [G3G,3]:|

